src/pos-icons/battery-charging-wireless-alert.svg

<svg height="24" viewBox="0 0 24 24" width="24" xmlns="http://www.w3.org/2000/svg"><path d="m13 4h-2v-2h-6v2h-2a1 1 0 0 0 -1 1v16a1 1 0 0 0 1 1h10a1 1 0 0 0 1-1v-16a1 1 0 0 0 -1-1m-4 14h-2v-2h2zm0-4h-2v-5h2zm11.07-9.07-1.41 1.41c3.13 3.12 3.13 8.19 0 11.32l1.41 1.41c3.9-3.9 3.9-10.23 0-14.14m-2.83 2.83-1.41 1.41c1.56 1.56 1.56 4.09 0 5.66l1.41 1.41c2.34-2.34 2.34-6.14 0-8.48z"/></svg>

<?xml version="1.0" encoding="UTF-8"?><!DOCTYPE svg PUBLIC "-//W3C//DTD SVG 1.1//EN" "http://www.w3.org/Graphics/SVG/1.1/DTD/svg11.dtd"><svg xmlns="http://www.w3.org/2000/svg" xmlns:xlink="http://www.w3.org/1999/xlink" version="1.1" id="mdi-battery-charging-wireless-alert" width="24" height="24" viewBox="0 0 24 24"><path d="M13,4H11V2H5V4H3A1,1 0 0,0 2,5V21A1,1 0 0,0 3,22H13A1,1 0 0,0 14,21V5A1,1 0 0,0 13,4M9,18H7V16H9V18M9,14H7V9H9V14M20.07,4.93L18.66,6.34C21.79,9.46 21.79,14.53 18.66,17.66L20.07,19.07C23.97,15.17 23.97,8.84 20.07,4.93M17.24,7.76L15.83,9.17C17.39,10.73 17.39,13.26 15.83,14.83L17.24,16.24C19.58,13.9 19.58,10.1 17.24,7.76Z" /></svg>
